_inc/images/systems/logos/wonderswancolor.svg

<?xml version="1.0" encoding="UTF-8"?>
<svg width="575px" height="112px" viewBox="0 0 575 112" version="1.1" xmlns="http://www.w3.org/2000/svg" xmlns:xlink="http://www.w3.org/1999/xlink">
    <title>wonderswancolor</title>
    <g id="Page-1" stroke="none" stroke-width="1" fill="none" fill-rule="evenodd" opacity="0.78">
        <g id="Wonderswan-Color" transform="translate(-32.000000, -4.000000)">
            <g id="wonderswancolor" transform="translate(32.000000, 4.000000)">
                <path d="M129.376519,50.811 C98.7626636,-7.353 39.6312855,-9.15 19.23105,13.448 C14.2582613,18.974 -2.72543225,50.571 44.3940408,80.252 C19.8901545,87.5 0,59.302 0,59.302 C30.5988529,117.466 89.7162288,119.263 110.130467,96.65 C115.103255,91.139 132.087949,59.527 84.9534735,29.861 C109.486364,22.628 129.376519,50.811 129.376519,50.811 Z M92.1276113,79.848 C82.8411385,90.121 63.0259958,87.366 47.8835943,73.663 C32.7111879,59.976 27.9484326,40.568 37.219903,30.28 C46.4903733,19.992 66.3205183,22.762 81.4779223,36.45 C96.6353262,50.137 101.414084,69.56 92.1276113,79.848 Z" id="Shape" fill="#FF0000" fill-rule="nonzero"></path>
                <path d="M61.8188044,52.471 C66.936616,46.802 77.8873528,48.333 86.2566802,55.888 C94.6270077,63.442 97.2664263,74.178 92.1476145,79.846 C87.0298028,85.515 76.079066,83.985 67.7097387,76.43 C59.3394111,68.876 56.6999925,58.14 61.8188044,52.471 Z" id="Path" fill="#FF0000"></path>
                <path d="M230.700589,12.699 L207.544916,12.699 L196.881225,20.157 L194.304816,32.227 C193.930757,33.964 195.263969,35.596 197.031249,35.596 L220.200923,35.596 L230.865615,28.139 L233.441023,16.068 C233.786078,14.331 232.467869,12.699 230.700589,12.699 L230.700589,12.699 Z M221.849185,17.791 L219.706845,27.809 L213.416848,32.2120007 L207.245869,32.2120007 C206.822496,32.2124202 206.421465,32.0220999 206.154109,31.6938747 C205.886754,31.3656495 205.78153,30.9344562 205.86765,30.52 L208.00899,20.486 L214.284985,16.0979513 L220.455964,16.0979513 C220.881659,16.0944674 221.286169,16.2833942 221.556652,16.6120777 C221.827136,16.9407612 221.934643,17.3740225 221.849185,17.791 L221.849185,17.791 Z M266.407252,12.699 L239.192936,12.699 L234.310161,35.596 L240.181092,35.596 L246.457088,31.208 L249.677598,16.098 L259.817207,16.098 C260.57625,16.0979646 261.294621,16.4410386 261.771629,17.0313778 C262.248636,17.621717 262.43314,18.3960309 262.273596,19.138 L258.754038,35.611 L269.956815,35.611 L273.461371,19.153 C274.165482,15.829 270.840955,12.699 266.407252,12.699 L266.407252,12.699 Z M567.84706,12.699 L540.617741,12.699 L535.749969,35.581 L541.6209,35.581 L547.896896,31.193 L551.117406,16.083 L561.257014,16.083 C562.016058,16.0829646 562.734429,16.4260386 563.211437,17.0163778 C563.688444,17.606717 563.872948,18.3810309 563.713404,19.123 L560.193846,35.596 L571.396623,35.596 L574.902179,19.138 C575.620292,15.829 572.295765,12.699 567.84706,12.699 L567.84706,12.699 Z M189.422042,0 L183.147047,4.388 L178.159256,27.809 L171.868258,32.197 L168.737762,32.197 L174.669702,4.388 L175.612852,0 L169.741921,0 L163.465925,4.388 L158.463132,27.809 L152.188137,32.197 L149.05764,32.197 L154.988581,4.388 L155.931731,0 L150.060799,0 L143.800807,4.388 L137.13575,35.581 L178.638332,35.581 L178.833363,35.446 L189.287021,28.139 L195.292973,0 L189.422042,0 Z M482.998603,16.098 L480.497206,27.809 L474.207208,32.197 L471.94585,32.197 L476.10951,12.699 L469.039389,12.699 L464.186619,16.098 L461.686223,27.809 L455.395225,32.197 L453.133866,32.197 L457.297527,12.699 L450.227405,12.699 L445.374636,16.098 L441.210975,35.581 L480.96228,35.581 L491.625971,28.139 L494.921494,12.699 L487.851372,12.699 L482.998603,16.098 L482.998603,16.098 Z M314.215834,13.073 C315.084218,12.5086907 315.892262,11.8565944 316.627217,11.127 C319.637694,8.102 321.88405,4.088 321.88405,4.088 L309.977162,4.088 C309.977162,4.088 307.730806,8.087 304.720328,11.127 C304.151238,11.711 303.507136,12.22 302.848031,12.699 L288.948827,12.699 L278.284135,20.157 L275.708727,32.227 C275.333667,33.964 276.666879,35.596 278.434159,35.596 L310.651269,35.596 L315.00996,15.14 C315.203991,14.301 314.844934,13.523 314.215834,13.073 L314.215834,13.073 Z M303.252095,17.791 L300.181608,32.2120001 L288.663782,32.2120001 C288.240583,32.2120001 287.839835,32.0216707 287.572707,31.6934865 C287.305578,31.3653023 287.200479,30.9342846 287.286563,30.52 L289.427903,20.486 L295.703898,16.098 L301.888879,16.098 C302.773019,16.098 303.447126,16.922 303.252095,17.791 Z M352.408891,12.699 L329.658283,12.699 L318.993592,20.157 L316.417183,32.227 C316.043124,33.964 317.376335,35.596 319.143616,35.596 L342.014243,35.596 L346.731991,32.197 L329.358236,32.197 C328.934992,32.1970502 328.534203,32.0066301 328.26693,31.6785055 C327.999656,31.3503809 327.894285,30.9194042 327.980017,30.505 L328.759141,26.836 L345.129737,26.836 L356.018464,19.213 L356.362519,17.581 C356.917607,15.08 354.9853,12.699 352.408891,12.699 L352.408891,12.699 Z M346.357932,17.791 L345.908861,19.887 L341.146105,23.257 L329.523262,23.257 L330.107354,20.486 L336.38235,16.098 L344.979713,16.098 C345.878856,16.098 346.552963,16.922 346.357932,17.791 Z M384.835034,20.621 C384.686876,21.0556414 384.490982,21.472521 384.250942,21.864 L383.367801,23.257 L390.961006,23.257 L396.143828,19.633 C396.143828,16.802 394.615585,12.714 388.130557,12.714 L370.336735,12.714 L359.673044,20.172 L356.377521,35.611 L367.581298,35.611 L370.801809,20.501 L377.076804,16.113 L381.570516,16.113 C383.906887,16.098 385.569151,18.39 384.835034,20.621 L384.835034,20.621 Z" id="Shape" fill="#FFFFFF" fill-rule="nonzero"></path>
                <path d="M433.871811,14.376 L419.239491,14.376 C417.771258,14.331 416.768099,13.388 417.007137,11.501 C417.546222,7.263 421.170797,5.032 422.998087,5.032 L439.308674,5.032 L446.483812,0 L419.448524,0 C410.866163,0 406.133412,6.35 405.130253,14.601 C404.396137,18 407.00255,21.22 410.477101,21.22 L425.110422,21.22 C426.577655,21.265 427.581814,22.208 427.356778,24.095 C426.832695,28.258 423.328139,30.475 421.485847,30.565 L388.190566,30.565 L381.001426,35.596 L397.896106,35.596 L397.881103,35.611 L424.915391,35.611 C433.497752,35.611 438.230503,29.262 439.234662,21.01 C439.952776,17.596 437.362365,14.376 433.871811,14.376 L433.871811,14.376 Z M524.412171,12.699 L511.157069,12.699 C504.627033,12.699 498.950133,17.266 497.616921,23.661 C496.238703,30.22 497.047831,36.045 506.274294,35.596 L512.834335,35.596 L517.672102,32.212 L512.355259,32.212 C509.598822,32.212 507.547496,29.666 508.116586,26.97 L508.89571,23.346 C509.795222,19.1103252 513.536342,16.0816247 517.867133,16.083 L523.693057,16.083 L519.529396,35.581 L530.732173,35.581 L535.614948,12.684 L526.119442,12.684 L524.412171,12.699 L524.412171,12.699 Z" id="Shape" fill="#FFFFFF" fill-rule="nonzero"></path>
                <path d="M287.675625,49.433 L282.043732,70.054 C280.77053,74.667 274.000456,73.753 274.000456,68.961 L274.000456,61.893 C274.000456,54.914 266.122207,54.091 266.122207,54.091 C249.108508,54.091 238.189777,73.918 238.278791,84.281 C238.278791,93.73 243.221575,103.824 256.027606,101.532 C264.369929,100.05 271.709093,93.161 271.709093,93.161 C271.919126,92.951 272.144162,92.727 272.338192,92.517 C276.277817,88.504 282.702836,93.356 279.932397,98.238 C270.945972,112.314 218.254615,120.805 218.254615,82.334 C218.254615,67.284 234.894254,37.962 288.184706,47.591 L287.675625,49.433 L287.675625,49.433 Z" id="Path" fill="#02A5F4" fill-rule="nonzero"></path>
                <path d="M383.082756,103 L377.211825,107.268 C365.51397,114.651 348.410257,109.829 348.754312,94.539 C348.784317,92.877 349.098366,91.229 349.533435,89.612 L359.133958,54.51 C360.0321,51.17 362.23445,48.265 365.319939,46.708 C371.969994,43.323 376.762754,48.909 375.654578,53.806 L365.964041,89.223 C362.099428,102.611 369.393585,104.333 372.569089,102.251 L380.102284,96.77 L385.869198,96.845 L385.225096,101.712 L383.082756,103 L383.082756,103 Z" id="Path" fill="#FF0000" fill-rule="nonzero"></path>
                <path d="M461.715227,84.326 L463.677538,77.153 C464.785714,72.271 459.992954,66.67 453.342899,70.054 C450.25741,71.612 448.071063,74.517 447.157919,77.856 L441.120961,99.99 L440.716897,101.472 C439.129645,107.238 443.577351,109.679 448.011054,110.293 C454.212037,111.161 455.455234,108.256 455.859299,106.264 C456.039327,105.411 456.30837,104.557 456.728436,103.779 C460.398018,97.13 465.57984,91.349 470.058551,87.186 C473.578109,83.921 479.299016,85.224 481.007287,89.702 L481.621384,91.289 C482.594539,93.835 486.249118,93.655 486.968232,91.02 L493.288235,67.913 C484.196793,66.79 472.334912,70.384 461.715227,84.326 L461.715227,84.326 Z" id="Path" fill="#F65BA6" fill-rule="nonzero"></path>
                <path d="M404.621172,65.741 C408.335761,65.008 410.702137,69.53 407.990707,72.181 C396.742923,83.188 394.361545,104.437 407.840683,104.437 C421.44084,104.437 425.080417,78.321 414.041666,75.505 C409.953018,74.682 412.544429,73.499 413.697612,72.915 C423.597182,67.898 439.907769,65.936 439.398688,83.667 C439.069636,94.674 425.709517,112 403.752034,112 C389.28374,112 379.398172,103.674 379.398172,91.469 C379.428177,80.926 390.646956,68.512 404.621172,65.741 L404.621172,65.741 Z" id="Path" fill="#6784E7" fill-rule="nonzero"></path>
                <path d="M310.307214,65.741 C314.020803,65.008 316.387178,69.53 313.676749,72.181 C302.428965,83.188 300.046587,104.437 313.526725,104.437 C327.126882,104.437 330.766459,78.321 319.727708,75.505 C315.63906,74.682 318.229471,73.499 319.383654,72.915 C329.283224,67.898 345.593811,65.936 345.08473,83.667 C344.755678,94.674 331.395559,112 309.438076,112 C294.969782,112 285.084214,103.674 285.084214,91.469 C285.099216,80.926 296.317996,68.512 310.307214,65.741 L310.307214,65.741 Z" id="Path" fill="#FFD52F" fill-rule="nonzero"></path>
            </g>
        </g>
    </g>
</svg>

<svg viewBox="0 0 575 112" xmlns="http://www.w3.org/2000/svg" xml:space="preserve" style="fill-rule:evenodd;clip-rule:evenodd;stroke-linejoin:round;stroke-miterlimit:2">
    <path d="M129.356 50.811C98.747-7.353 39.625-9.15 19.228 13.448c-4.972 5.526-21.953 37.123 25.159 66.804C19.887 87.5 0 59.302 0 59.302c30.594 58.164 89.702 59.961 110.113 37.348 4.972-5.511 21.954-37.123-25.173-66.789 24.529-7.233 44.416 20.95 44.416 20.95ZM92.113 79.848c-9.285 10.273-29.097 7.518-44.237-6.185-15.17-13.687-19.932-33.095-10.662-43.383 9.269-10.288 29.096-7.518 44.251 6.17 15.155 13.687 19.933 33.11 10.648 43.398Z" style="fill:red;fill-rule:nonzero"/>
    <path d="M61.809 52.471c5.117-5.669 16.066-4.138 24.434 3.417 8.369 7.554 11.008 18.29 5.89 23.958-5.117 5.669-16.066 4.139-24.434-3.416-8.369-7.554-11.008-18.29-5.89-23.959Z" style="fill:red"/>
    <path d="M230.664 12.699h-23.152l-10.662 7.458-2.576 12.07c-.374 1.737.959 3.369 2.726 3.369h23.166l10.663-7.457 2.575-12.071c.345-1.737-.973-3.369-2.74-3.369Zm-8.85 5.092-2.142 10.018-6.289 4.403h-6.17a1.406 1.406 0 0 1-1.378-1.692l2.141-10.034 6.275-4.388h6.17a1.41 1.41 0 0 1 1.393 1.693Zm44.551-5.092h-27.21l-4.882 22.897h5.87l6.275-4.388 3.22-15.11h10.138a2.512 2.512 0 0 1 2.456 3.04l-3.519 16.473h11.201l3.504-16.458c.704-3.324-2.62-6.454-7.053-6.454Zm301.392 0h-27.225l-4.867 22.882h5.87l6.275-4.388 3.22-15.11h10.138a2.512 2.512 0 0 1 2.456 3.04l-3.519 16.473h11.201l3.505-16.458c.718-3.309-2.606-6.439-7.054-6.439ZM189.392 0l-6.274 4.388-4.987 23.421-6.29 4.388h-3.13l5.931-27.809.943-4.388h-5.87l-6.275 4.388-5.002 23.421-6.274 4.388h-3.13l5.93-27.809.943-4.388h-5.87l-6.259 4.388-6.664 31.193h41.496l.195-.135 10.452-7.307L195.262 0h-5.87Zm293.53 16.098-2.501 11.711-6.289 4.388h-2.261l4.163-19.498h-7.069l-4.852 3.399-2.5 11.711-6.29 4.388h-2.261l4.163-19.498h-7.069l-4.852 3.399-4.163 19.483h39.745l10.662-7.442 3.295-15.44h-7.069l-4.852 3.399Zm-168.756-3.025a15.105 15.105 0 0 0 2.411-1.946c3.01-3.025 5.256-7.039 5.256-7.039h-11.905s-2.246 3.999-5.256 7.039c-.569.584-1.213 1.093-1.872 1.572h-13.897l-10.663 7.458-2.575 12.07c-.375 1.737.958 3.369 2.725 3.369h32.212l4.358-20.456c.194-.839-.165-1.617-.794-2.067Zm-10.962 4.718-3.07 14.421h-11.516a1.406 1.406 0 0 1-1.377-1.692l2.141-10.034 6.275-4.388h6.184c.884 0 1.558.824 1.363 1.693Zm49.149-5.092h-22.747l-10.663 7.458-2.576 12.07c-.374 1.737.959 3.369 2.726 3.369h22.867l4.717-3.399h-17.371a1.407 1.407 0 0 1-1.378-1.692l.779-3.669h16.368l10.887-7.623.344-1.632c.555-2.501-1.377-4.882-3.953-4.882Zm-6.05 5.092-.449 2.096-4.762 3.37h-11.621l.584-2.771 6.274-4.388h8.596c.899 0 1.573.824 1.378 1.693Zm38.471 2.83a6.213 6.213 0 0 1-.584 1.243l-.883 1.393h7.592l5.182-3.624c0-2.831-1.528-6.919-8.012-6.919h-17.791l-10.662 7.458-3.295 15.439h11.202l3.22-15.11 6.274-4.388h4.493c2.336-.015 3.998 2.277 3.264 4.508Z" style="fill:#fff;fill-rule:nonzero"/>
    <path d="M433.803 14.376h-14.63c-1.468-.045-2.471-.988-2.232-2.875.539-4.238 4.163-6.469 5.99-6.469h16.308L446.413 0h-27.031c-8.581 0-13.313 6.35-14.316 14.601-.734 3.399 1.872 6.619 5.346 6.619h14.631c1.467.045 2.471.988 2.246 2.875-.524 4.163-4.028 6.38-5.87 6.47h-33.29l-7.188 5.031h16.892l-.015.015h27.03c8.581 0 13.313-6.349 14.317-14.601.718-3.414-1.872-6.634-5.362-6.634Zm90.526-1.677h-13.253c-6.529 0-12.205 4.567-13.538 10.962-1.378 6.559-.569 12.384 8.656 11.935h6.559l4.837-3.384h-5.316c-2.756 0-4.807-2.546-4.238-5.242l.779-3.624a9.167 9.167 0 0 1 8.97-7.263h5.825l-4.163 19.498h11.201l4.882-22.897h-9.494l-1.707.015Z" style="fill:#fff;fill-rule:nonzero"/>
    <path d="m287.63 49.433-5.631 20.621c-1.273 4.613-8.042 3.699-8.042-1.093v-7.068c0-6.979-7.877-7.802-7.877-7.802-17.011 0-27.928 19.827-27.839 30.19 0 9.449 4.942 19.543 17.746 17.251 8.341-1.482 15.679-8.371 15.679-8.371.21-.21.435-.434.629-.644 3.939-4.013 10.363.839 7.593 5.721-8.985 14.076-61.668 22.567-61.668-15.904 0-15.05 16.637-44.372 69.919-34.743l-.509 1.842Z" style="fill:#02a5f4;fill-rule:nonzero"/>
    <path d="m383.022 103-5.87 4.268c-11.696 7.383-28.797 2.561-28.453-12.729.03-1.662.344-3.31.779-4.927l9.599-35.102c.898-3.34 3.1-6.245 6.185-7.802 6.649-3.385 11.441 2.201 10.333 7.098l-9.689 35.417c-3.864 13.388 3.429 15.11 6.604 13.028l7.532-5.481 5.766.075-.644 4.867-2.142 1.288Z" style="fill:red;fill-rule:nonzero"/>
    <path d="m461.642 84.326 1.962-7.173c1.108-4.882-3.684-10.483-10.333-7.099-3.085 1.558-5.271 4.463-6.184 7.802l-6.036 22.134-.404 1.482c-1.587 5.766 2.86 8.207 7.293 8.821 6.2.868 7.443-2.037 7.847-4.029.18-.853.449-1.707.869-2.485 3.669-6.649 8.85-12.43 13.328-16.593 3.519-3.265 9.239-1.962 10.947 2.516l.614 1.587c.973 2.546 4.627 2.366 5.346-.269l6.319-23.107c-9.09-1.123-20.95 2.471-31.568 16.413Z" style="fill:#f65ba6;fill-rule:nonzero"/>
    <path d="M404.557 65.741c3.714-.733 6.08 3.789 3.369 6.44-11.246 11.007-13.627 32.256-.15 32.256 13.598 0 17.237-26.116 6.2-28.932-4.088-.823-1.497-2.006-.344-2.59 9.898-5.017 26.206-6.979 25.697 10.752C439 94.674 425.642 112 403.688 112c-14.466 0-24.35-8.326-24.35-20.531.03-10.543 11.247-22.957 25.219-25.728Z" style="fill:#6784e7;fill-rule:nonzero"/>
    <path d="M310.258 65.741c3.713-.733 6.079 3.789 3.369 6.44-11.246 11.007-13.628 32.256-.15 32.256 13.598 0 17.237-26.116 6.2-28.932-4.088-.823-1.498-2.006-.344-2.59 9.898-5.017 26.206-6.979 25.697 10.752C344.701 94.674 331.343 112 309.389 112c-14.466 0-24.35-8.326-24.35-20.531.015-10.543 11.232-22.957 25.219-25.728Z" style="fill:#ffd52f;fill-rule:nonzero"/>
</svg>
